assets/icons/24px/outline/receipt-24px.svg

<svg width="24" height="24" viewBox="0 0 24 24" fill="none" xmlns="http://www.w3.org/2000/svg">
<g clip-path="url(#clip0_821_19297)">
<path d="M8 7L16 7M8 11.5L11.5 11.5M15 11.5L16 11.5M8 16L10 16M15 16L16 16" stroke="white" stroke-width="2" stroke-linecap="round"/>
<path d="M6.66624 20.058C5.45215 20.4869 4.84511 20.7014 4.42256 20.4025C4 20.1036 4 19.4598 4 18.1722L4 7.00001C4 5.11439 4 4.17158 4.58579 3.58579C5.17158 3 6.11439 3.00001 8.00001 3.00001L16 3.00004C17.8856 3.00005 18.8284 3.00005 19.4142 3.58584C20 4.17162 20 5.11443 20 7.00004L20 18.1722C20 19.4599 20 20.1037 19.5774 20.4025C19.1549 20.7014 18.5478 20.4869 17.3337 20.058L17.2049 20.0125C16.8073 19.872 16.6085 19.8018 16.4041 19.815C16.1997 19.8282 16.0116 19.9234 15.6353 20.1139L14.8293 20.5219C14.4207 20.7288 14.2164 20.8322 14.0005 20.8415C13.9301 20.8445 13.8597 20.8401 13.7903 20.8283C13.5772 20.7922 13.3874 20.664 13.0078 20.4078V20.4078C12.5749 20.1156 12.3585 19.9695 12.1176 19.941C12.0395 19.9317 11.9605 19.9317 11.8823 19.941C11.6415 19.9695 11.4251 20.1156 10.9922 20.4078V20.4078C10.6126 20.664 10.4228 20.7922 10.2097 20.8283C10.1403 20.8401 10.0698 20.8445 9.99951 20.8415C9.78358 20.8322 9.57928 20.7288 9.17068 20.5219L8.36464 20.1139C7.98842 19.9234 7.80031 19.8282 7.59588 19.815C7.39145 19.8018 7.19266 19.872 6.79506 20.0125L6.66624 20.058Z" stroke="white" stroke-width="2"/>
</g>
<defs>
<clipPath id="clip0_821_19297">
<rect width="24" height="24" fill="white"/>
</clipPath>
</defs>
</svg>

<svg width="24" height="24" fill="none" xmlns="http://www.w3.org/2000/svg"><g clip-path="url(#clip0_821_19297)" stroke="#fff" stroke-width="2"><path d="M8 7h8m-8 4.5h3.5m3.5 0h1M8 16h2m5 0h1" stroke-linecap="round"/><path d="M6.666 20.058c-1.214.429-1.82.643-2.243.345C4 20.102 4 19.46 4 18.172V7c0-1.886 0-2.828.586-3.414C5.172 3 6.114 3 8 3h8c1.886 0 2.828 0 3.414.586C20 4.172 20 5.114 20 7v11.172c0 1.288 0 1.932-.423 2.23-.422.3-1.03.085-2.243-.344l-.13-.046c-.397-.14-.596-.21-.8-.197-.204.013-.392.108-.769.299l-.806.408c-.408.207-.613.31-.829.32a1 1 0 0 1-.21-.014c-.213-.036-.403-.164-.782-.42-.433-.292-.65-.439-.89-.467a.996.996 0 0 0-.236 0c-.24.029-.457.175-.89.467-.38.256-.57.384-.782.42a1 1 0 0 1-.21.014c-.216-.01-.42-.113-.83-.32l-.805-.408c-.377-.19-.565-.286-.77-.299-.204-.013-.402.057-.8.197l-.129.046z"/></g><defs><clipPath id="clip0_821_19297"><path fill="#fff" d="M0 0H24V24H0z"/></clipPath></defs></svg>
